svg/furkot/freepik/square.svg

<svg viewBox="0 0 512 512" xmlns="http://www.w3.org/2000/svg"><path d="m486.261.006h-457.979c-15.599 0-28.282 12.683-28.282 28.276v457.996c0 15.599 12.683 28.271 28.282 28.271h457.99c15.599 0 28.282-12.672 28.282-28.271v-457.996c-.005-15.593-12.683-28.276-28.293-28.276zm-21.988 26.701 23.574 23.586v42.691l-66.271-66.277zm-91.576 0 115.15 115.156v61.668l-176.813-176.824zm-346.001 1.575c-.005-.868.707-1.575 1.586-1.575h7.747c-4.48 1.381-7.964 4.87-9.333 9.35zm-.005 22.011 23.58-23.586h42.696l-66.276 66.282zm0 91.57 115.161-115.156h61.662l-176.823 176.824zm1.591 345.995c-.879 0-1.591-.707-1.591-1.575v-7.769c1.369 4.48 4.853 7.981 9.333 9.35zm21.994 0-23.58-23.585v-42.697l66.277 66.282zm91.576 0-115.161-115.155v-61.663l176.823 176.818zm169.182 0 176.813-176.818v61.663l-115.15 115.155zm176.819-1.592c.011.88-.707 1.587-1.587 1.587h-7.757c4.485-1.381 7.974-4.881 9.344-9.361zm.011-22.01-23.586 23.585h-42.696l66.282-66.27zm0-202.919-226.516 226.521h-8.164l-226.493-226.504v-8.164l226.487-226.483h8.181l226.499 226.499zm0-225.274c-1.369-4.48-4.87-7.975-9.344-9.356h7.758c.868 0 1.586.707 1.586 1.575zm-393.311 221.211 162.716 162.705 162.71-162.705-162.71-162.715zm267.926 0-105.205 105.211-105.204-105.211 105.204-105.199zm-154.162 0 48.957-48.951 48.952 48.951-48.957 48.958z"/></svg>

<svg xmlns="http://www.w3.org/2000/svg" viewBox="0 0 512 512"><path d="M486.261 0.006H28.282C12.683 0.006 0 12.689 0 28.282V486.278C0 501.877 12.683 514.549 28.282 514.549H486.272C501.871 514.549 514.554 501.877 514.554 486.278V28.282C514.549 12.689 501.871 0.006 486.261 0.006ZM464.273 26.707L487.847 50.293V92.984L421.576 26.707H464.273ZM372.697 26.707L487.847 141.863V203.531L311.034 26.707H372.697ZM26.696 28.282C26.691 27.414 27.403 26.707 28.282 26.707H36.029C31.549 28.088 28.065 31.577 26.696 36.057V28.282ZM26.691 50.293L50.271 26.707H92.967L26.691 92.989V50.293ZM26.691 141.863L141.852 26.707H203.514L26.691 203.531V141.863ZM28.282 487.858C27.403 487.858 26.691 487.151 26.691 486.283V478.514C28.06 482.994 31.544 486.495 36.024 487.864L28.282 487.858 28.282 487.858ZM50.276 487.858L26.696 464.273V421.576L92.973 487.858H50.276ZM141.852 487.858L26.691 372.703V311.04L203.514 487.858H141.852ZM311.034 487.858L487.847 311.04V372.703L372.697 487.858H311.034ZM487.853 486.266C487.864 487.146 487.146 487.853 486.266 487.853H478.509C482.994 486.472 486.483 482.972 487.853 478.492V486.266ZM487.864 464.256L464.278 487.841H421.582L487.864 421.571V464.256ZM487.864 261.337L261.348 487.858H253.184L26.691 261.354V253.19L253.178 26.707H261.359L487.858 253.206 487.864 261.337 487.864 261.337ZM487.864 36.063C486.495 31.583 482.994 28.088 478.52 26.707H486.278C487.146 26.707 487.864 27.414 487.864 28.282V36.063ZM94.553 257.274L257.269 419.979 419.979 257.274 257.269 94.559 94.553 257.274ZM362.479 257.274L257.274 362.485 152.07 257.274 257.274 152.075 362.479 257.274ZM208.317 257.274L257.274 208.323 306.226 257.274 257.269 306.232 208.317 257.274Z"/></svg>
